!!!COM: Bach, Johann Sebastian
!!!OPR: Joh. Seb. Bachs vierstimmige Choralges‰nge
!!!XEN: Four-part Chorales
!!!OTL: 128. Meines Lebens letzte Zeit
!!!SCT: BWV 381
!!!SCA: Thematisch-systematisches Verzeichnis der musikalischen Werke Johann Sebastian Bach: Bach-Werke-Verzeichnis (Schmieder)
!!!YOR: Bach Gesellschaft Edition xxxix
!!!ENC: Steven Rasmussen
!!!CDT: 1685/3//-1750/7/28/
!!!OCY: Deutschland
!!!YEC: Copyright (c) 1994, 2000 Center for Computer Assisted Research in the Humanities
!!!YEM: Rights to all derivative editions reserved
!!!YEN: United States of America
**kern	**silbe	**kern	**kern	**kern
*I:[SOPRANO]	*I:[SOPRANO]	*I:[ALTO]	*I:[TENORE]	*I:[BASSO]
*clefG2	*	*clefG2	*clefGv2	*clefF4
*k[f#]	*	*k[f#]	*k[f#]	*k[f#]
*e:	*	*e:	*e:	*e:
*M4/4	*	*M4/4	*M4/4	*M4/4
=1-	=1-	=1-	=1-	=1-
4b	Mei-	4g	4e	4EE
4b	-nes	4g	4e	4E
4cc	Le-	4f#	4A	8EL
.	.	.	.	8D#J
4b	-bens	8gL	4G	8EL
.	.	8f#J	.	8GJ
=2	=2	=2	=2	=2
4b	letz-	8eL	4G	4C
.	.	8d#J	.	.
4a	-te	4e	8F#L	4C
.	.	.	8EJ	.
2b;	Zeit	2d#;	2F#;	2BB;
=3	=3	=3	=3	=3
4dd	ist	8gL	8BL	4GG
.	.	8aJ	8cJ	.
4dd	nun-	8bL	4d	4G
.	.	8aJ	.	.
4ee	-meh-	4b	4d	8GL
.	.	.	.	8F#J
4ee	-ro	4e	4c	8GL
.	.	.	.	8cJ
=4	=4	=4	=4	=4
4a	an-	8dL	4d	8F#L
.	.	8gJ	.	8EJ
8ddL	-ge-	4f#	4d	4D
8ccJ	.	.	.	.
4b	-kom-	4g	4d	4G
4b;	-men,	4g;	4d;	4GG;
=5	=5	=5	=5	=5
4.g	da	4e	4c	8cL
.	.	.	.	8BJ
.	.	4e	4c	4c
8a	der	.	.	.
4b	schn√∂-	4f#	4B	4D#
8aL	-den	4e	4B	4E
8gJ	.	.	.	.
=6	=6	=6	=6	=6
4.f#	Ei-	4e	4c	4AA
.	.	4d#	8.BL	4BB
8e	-tel-	.	.	.
.	.	.	16AJk	.
2e;	-keit	2B;	2G;	2EE;
=7	=7	=7	=7	=7
4.b	mei-	4g	4e	8EL
.	.	.	.	8F#J
.	.	4g	4d	4G
8cc	-ne	.	.	.
4dd	See-	4a	4d	8GL
.	.	.	.	8F#J
4b	-le	4g	4d	8GL
.	.	.	.	8BJ
=8	=8	=8	=8	=8
4cc	wird	8gL	8cL	8EL
.	.	8f#J	8dJ	8DJ
8bL	ent-	4g	4e	4C
8aJ	.	.	.	.
4a	-nom-	8gL	8.dL	4D
.	.	8f#J	.	.
.	.	.	16cJk	.
4g;	-men;	4d;	4B;	4GG;
=9	=9	=9	=9	=9
4b	wer	8gL	4d	8GL
.	.	8aJ	.	8F#J
4b	kann	4b	8gL	8EL
.	.	.	8f#J	8DJ
4ee	wi-	4b	8eL	4C
.	.	.	8dJ	.
4ee	-der-	8aL	4e	4C#
.	.	8gJ	.	.
=10	=10	=10	=10	=10
4a	-stre-	8gL	4d	4D
.	.	16f#L	.	.
.	.	16eJJ	.	.
4a;	-ben,	4f#;	4d;	4D;
4b	dass	4g	4d	4G
4cc	uns	4g	4e	8F#L
.	.	.	.	8EJ
=11	=11	=11	=11	=11
4dd	Men-	8aL	4A	8F#L
.	.	8gJ	.	8EJ
4dd	-schen	4a	8dL	8F#L
.	.	.	8f#J	8BJ
4cc	Gott	(8g	8eL	8EL
.	.	4a)	8dJ	8F#J
4b	das	.	4d	4G
.	.	8g	.	.
=12	=12	=12	=12	=12
4a	Le-	8gL	4d	4D
.	.	16f#L	.	.
.	.	16eJJ	.	.
4a;	-ben	4f#;	4d;	4D;
4.b	auf	4g	4d	8GL
.	.	.	.	8F#J
.	.	4g	4e	4E
8cc	ein	.	.	.
=13	=13	=13	=13	=13
4dd	zeit-	8g#L	4B	8EL
.	.	8f#J	.	8DJ
4b	-lich	8g#L	4e	8EL
.	.	8bJ	.	8G#J
4cc	Wie-	8bL	4e	4AA
.	.	8aJ	.	.
4b	-der-	4gn	4d	8BBL
.	.	.	.	8CJ
=14	=14	=14	=14	=14
4a	-neh-	8gL	4d	4D
.	.	8f#J	.	.
4b	-men	4f#	8BL	4D#
.	.	.	8AJ	.
4b	hat	4e	4G	8EL
.	.	.	.	8GJ
8aL	ge-	4e	8AL	8CL
8gJ	.	.	8BJ	8BBJ
=15	=15	=15	=15	=15
2f#	-ge-	4e	4c	4AA
.	.	4d#	8BL	4BB
.	.	.	8AJ	.
2e;	-ben.	2B;	2G#;	2E;
==|!	==|!	==|!	==|!	==|!
*-	*-	*-	*-	*-
!!!RWG: Key is interpreted using the Humdrum key tool.
!!!END: 1994/07/18
!!!EMD: Converted from MuseData to Humdrum Dec 19, 2000, by Andreas Kornstaedt using muse2kern.
!!!EED: Craig Stuart Sapp
!!!EEV: 2024/03/31
!!!ONB: Some non-unicode characters
